src/images/icons/twitter.svg

<svg xmlns="http://www.w3.org/2000/svg" width="24" height="24" viewBox="0 0 24 24"><path d="M12 0c-6.627 0-12 5.373-12 12s5.373 12 12 12 12-5.373 12-12-5.373-12-12-12zm6.066 9.645c.183 4.04-2.83 8.544-8.164 8.544-1.622 0-3.131-.476-4.402-1.291 1.524.18 3.045-.244 4.252-1.189-1.256-.023-2.317-.854-2.684-1.995.451.086.895.061 1.298-.049-1.381-.278-2.335-1.522-2.304-2.853.388.215.83.344 1.301.359-1.279-.855-1.641-2.544-.889-3.835 1.416 1.738 3.533 2.881 5.92 3.001-.419-1.796.944-3.527 2.799-3.527.825 0 1.572.349 2.096.907.654-.128 1.27-.368 1.824-.697-.215.671-.67 1.233-1.263 1.589.581-.07 1.135-.224 1.649-.453-.384.578-.87 1.084-1.433 1.489z"/></svg>

<svg xmlns="http://www.w3.org/2000/svg" width="24" height="24" viewBox="0 0 24 24">
  <g fill="none">
    <path d="M12 0C5.4 0 0 5.4 0 12 0 18.6 5.4 24 12 24 18.6 24 24 18.6 24 12 24 5.4 18.6 0 12 0ZM18.1 9.6C18.2 13.7 15.2 18.2 9.9 18.2 8.3 18.2 6.8 17.7 5.5 16.9 7 17.1 8.5 16.7 9.8 15.7 8.5 15.7 7.4 14.9 7.1 13.7 7.5 13.8 8 13.8 8.4 13.7 7 13.4 6 12.1 6.1 10.8 6.5 11 6.9 11.2 7.4 11.2 6.1 10.3 5.7 8.6 6.5 7.3 7.9 9.1 10 10.2 12.4 10.3 12 8.5 13.3 6.8 15.2 6.8 16 6.8 16.8 7.2 17.3 7.7 17.9 7.6 18.6 7.3 19.1 7 18.9 7.7 18.4 8.3 17.9 8.6 18.4 8.5 19 8.4 19.5 8.2 19.1 8.7 18.6 9.2 18.1 9.6L18.1 9.6Z" fill="#FFF"/>
  </g>
</svg>
